X: 3
T: The Sailor's Wife
R: jig
M: 6/8
L: 1/8
K: Dmin
E|DEF E2D|d2e f2g|agf edc |AcA GEC| DEF E2D|d2e f2g|agf ed^c|d3 D2:|e|f>ga fga|fga agf|ecg ecg |ecg gfe| f>ga agf|efg gfe|def ed^c|d3 D2:|


Tune 3140	Setting 21812

